; generated by Slic3r 1.0.0RC2 on 2014-02-02 at 10:53:51

; M-PLA-05-03-1

; layer_height = 0.3
; perimeters = 2
; top_solid_layers = 3
; bottom_solid_layers = 2
; fill_density = 0.2
; perimeter_speed = 32
; infill_speed = 50
; travel_speed = 250
; nozzle_diameter = 0.5
; filament_diameter = 1.75
; extrusion_multiplier = 0.9
; perimeters extrusion width = 0.50mm
; infill extrusion width = 0.50mm
; solid infill extrusion width = 0.50mm
; top infill extrusion width = 0.50mm
; first layer extrusion width = 0.50mm

G21 ; set units to millimeters
M107
M190 S57 ; wait for bed temperature to be reached
M104 S200 ; set temperature
G28 X0 Y0
G28 Z0
G1 Z0.3 F200
G1 X15 Y20 F12000
M109 S200 ; wait for temperature to be reached
G90 ; use absolute coordinates
G92 E0
M82 ; use absolute distances for extrusion
G1 F2760.000 E-3.20000
G92 E0
G1 Z0.300 F15000.000
G1 X62.076 Y58.566 F15000.000
G1 E3.20000 F2760.000
G1 X63.466 Y57.076 E3.31437 F960.000
G1 X64.226 Y56.296 E3.37549
G1 X65.076 Y55.466 E3.44217
G1 X66.566 Y54.076 E3.55654
G1 X67.406 Y53.336 E3.61937
G1 X68.966 Y52.026 E3.73371
G1 X70.816 Y50.576 E3.86563
G1 X71.686 Y49.936 E3.92625
G1 X73.346 Y48.766 E4.04024
G1 X74.286 Y48.146 E4.10344
G1 X76.096 Y47.016 E4.22320
G1 X77.126 Y46.406 E4.29039
G1 X78.906 Y45.416 E4.40471
G1 X79.976 Y44.856 E4.47249
G1 X81.906 Y43.916 E4.59298
G1 X83.886 Y43.036 E4.71459
G1 X85.776 Y42.276 E4.82893
G1 X86.906 Y41.856 E4.89659
G1 X88.956 Y41.156 E5.01817
G1 X90.956 Y40.546 E5.13553
G1 X91.936 Y40.266 E5.19273
G1 X93.086 Y39.976 E5.25930
G1 X95.076 Y39.516 E5.37394
G1 X96.176 Y39.296 E5.43690
G1 X98.356 Y38.906 E5.56120
G1 X99.366 Y38.756 E5.61851
G1 X101.606 Y38.476 E5.74521
G1 X103.636 Y38.306 E5.85954
G1 X104.776 Y38.236 E5.92365
G1 X105.786 Y38.186 E5.98040
G1 X107.866 Y38.156 E6.09716
G1 X110.086 Y38.186 E6.22177
G1 X112.346 Y38.306 E6.34880
G1 X114.406 Y38.476 E6.46481
G1 X116.626 Y38.756 E6.59040
G1 X117.636 Y38.906 E6.64771
G1 X119.846 Y39.306 E6.77376
G1 X121.936 Y39.746 E6.89364
G1 X123.016 Y40.006 E6.95599
G1 X124.986 Y40.536 E7.07049
G1 X127.136 Y41.186 E7.19655
G1 X129.116 Y41.866 E7.31406
G1 X131.236 Y42.676 E7.44143
G1 X133.106 Y43.476 E7.55559
G1 X134.186 Y43.966 E7.62215
G1 X136.016 Y44.856 E7.73637
G1 X137.086 Y45.416 E7.80415
G1 X138.866 Y46.406 E7.91847
G1 X139.906 Y47.016 E7.98614
G1 X141.566 Y48.056 E8.09609
G1 X142.626 Y48.756 E8.16738
G1 X144.296 Y49.926 E8.28183
G1 X145.266 Y50.636 E8.34930
G1 X146.876 Y51.896 E8.46404
G1 X148.586 Y53.336 E8.58952
G1 X149.426 Y54.076 E8.65235
G1 X150.916 Y55.466 E8.76672
G1 X151.706 Y56.246 E8.82903
G1 X152.526 Y57.076 E8.89451
G1 X153.916 Y58.566 E9.00888
G1 X154.656 Y59.406 E9.07171
G1 X156.016 Y61.026 E9.19043
G1 X157.396 Y62.796 E9.31640
G1 X158.006 Y63.616 E9.37376
G1 X159.226 Y65.346 E9.49258
G1 X159.846 Y66.286 E9.55578
G1 X160.976 Y68.096 E9.67554
G1 X161.596 Y69.136 E9.74350
G1 X162.576 Y70.916 E9.85754
G1 X163.076 Y71.886 E9.91879
G1 X164.066 Y73.896 E10.04455
G1 X164.486 Y74.826 E10.10182
G1 X165.336 Y76.836 E10.22431
G1 X165.716 Y77.786 E10.28174
G1 X166.446 Y79.806 E10.40229
G1 X166.836 Y80.956 E10.47044
G1 X167.456 Y83.006 E10.59065
G1 X167.986 Y84.966 E10.70461
G1 X168.276 Y86.146 E10.77281
G1 X168.696 Y88.146 E10.88751
G1 X169.076 Y90.316 E11.01116
G1 X169.256 Y91.466 E11.07649
G1 X169.496 Y93.486 E11.19066
G1 X169.606 Y94.636 E11.25550
G1 X169.686 Y95.656 E11.31293
G1 X169.806 Y97.906 E11.43939
G1 X169.836 Y99.946 E11.55390
G1 X169.806 Y102.086 E11.67402
G1 X169.686 Y104.346 E11.80105
G1 X169.496 Y106.506 E11.92275
G1 X169.256 Y108.526 E12.03692
G1 X169.076 Y109.676 E12.10225
G1 X168.716 Y111.726 E12.21907
G1 X168.246 Y113.936 E12.34589
G1 X167.986 Y115.016 E12.40824
G1 X167.456 Y116.986 E12.52274
G1 X166.796 Y119.166 E12.65058
G1 X165.716 Y122.206 E12.83165
G1 X165.336 Y123.156 E12.88908
G1 X164.486 Y125.166 E13.01156
G1 X164.066 Y126.096 E13.06884
G1 X163.116 Y128.026 E13.18957
G1 X162.576 Y129.076 E13.25584
G1 X161.596 Y130.856 E13.36989
G1 X160.976 Y131.896 E13.43785
G1 X159.896 Y133.626 E13.55231
G1 X159.236 Y134.626 E13.61956
G1 X158.066 Y136.296 E13.73401
G1 X157.396 Y137.196 E13.79698
G1 X156.016 Y138.966 E13.92295
G1 X154.656 Y140.586 E14.04167
G1 X153.916 Y141.426 E14.10450
G1 X152.526 Y142.916 E14.21887
G1 X150.916 Y144.526 E14.34666
G1 X149.426 Y145.916 E14.46103
G1 X148.586 Y146.656 E14.52386
G1 X146.966 Y148.016 E14.64258
G1 X145.196 Y149.396 E14.76855
G1 X144.296 Y150.066 E14.83153
G1 X142.626 Y151.236 E14.94597
G1 X141.626 Y151.896 E15.01322
G1 X139.896 Y152.976 E15.12769
G1 X138.856 Y153.596 E15.19564
G1 X137.076 Y154.576 E15.30969
G1 X136.106 Y155.076 E15.37094
G1 X134.096 Y156.066 E15.49670
G1 X133.166 Y156.486 E15.55397
G1 X131.156 Y157.336 E15.67646
G1 X130.206 Y157.716 E15.73388
G1 X128.116 Y158.466 E15.85851
G1 X127.036 Y158.836 E15.92259
G1 X125.096 Y159.426 E16.03640
G1 X123.016 Y159.986 E16.15730
G1 X121.936 Y160.246 E16.21965
G1 X119.726 Y160.716 E16.34646
G1 X117.676 Y161.076 E16.46328
G1 X116.526 Y161.256 E16.52861
G1 X114.506 Y161.496 E16.64278
G1 X113.356 Y161.606 E16.70762
G1 X112.346 Y161.686 E16.76449
G1 X110.086 Y161.806 E16.89151
G1 X108.046 Y161.836 E17.00602
G1 X105.906 Y161.806 E17.12615
G1 X103.656 Y161.686 E17.25261
G1 X101.486 Y161.496 E17.37487
G1 X99.466 Y161.256 E17.48904
G1 X98.316 Y161.076 E17.55437
G1 X96.146 Y160.696 E17.67802
G1 X94.146 Y160.276 E17.79272
G1 X92.966 Y159.986 E17.86092
G1 X91.006 Y159.456 E17.97488
G1 X88.956 Y158.836 E18.09509
G1 X87.806 Y158.446 E18.16324
G1 X85.786 Y157.716 E18.28380
G1 X84.836 Y157.336 E18.34122
G1 X82.826 Y156.486 E18.46371
G1 X81.896 Y156.066 E18.52098
G1 X79.966 Y155.116 E18.64172
G1 X78.916 Y154.576 E18.70799
G1 X77.136 Y153.596 E18.82204
G1 X76.096 Y152.976 E18.88999
G1 X74.286 Y151.846 E19.00975
G1 X73.436 Y151.286 E19.06689
G1 X71.616 Y150.006 E19.19177
G1 X70.796 Y149.396 E19.24913
G1 X69.026 Y148.016 E19.37510
G1 X67.406 Y146.656 E19.49382
G1 X66.566 Y145.916 E19.55665
G1 X65.076 Y144.526 E19.67102
G1 X64.276 Y143.736 E19.73412
G1 X63.466 Y142.916 E19.79881
G1 X62.076 Y141.426 E19.91318
G1 X61.336 Y140.586 E19.97601
G1 X59.896 Y138.876 E20.10149
G1 X58.636 Y137.266 E20.21624
G1 X57.926 Y136.296 E20.28370
G1 X56.756 Y134.626 E20.39815
G1 X56.056 Y133.566 E20.46945
G1 X55.016 Y131.906 E20.57939
G1 X54.406 Y130.866 E20.64706
G1 X53.416 Y129.086 E20.76138
G1 X52.856 Y128.016 E20.82916
G1 X51.966 Y126.186 E20.94338
G1 X51.476 Y125.106 E21.00994
G1 X50.676 Y123.236 E21.12410
G1 X49.866 Y121.116 E21.25148
G1 X49.526 Y120.156 E21.30864
G1 X49.186 Y119.136 E21.36898
G1 X48.536 Y116.986 E21.49505
G1 X48.006 Y115.016 E21.60955
G1 X47.746 Y113.936 E21.67190
G1 X47.286 Y111.746 E21.79750
G1 X46.906 Y109.636 E21.91783
G1 X46.756 Y108.626 E21.97514
G1 X46.476 Y106.406 E22.10073
G1 X46.386 Y105.386 E22.15820
G1 X46.306 Y104.346 E22.21674
G1 X46.186 Y102.086 E22.34377
G1 X46.156 Y100.046 E22.45828
G1 X46.186 Y97.906 E22.57840
G1 X46.306 Y95.656 E22.70486
G1 X46.476 Y93.586 E22.82144
G1 X46.756 Y91.366 E22.94702
G1 X46.906 Y90.356 E23.00433
G1 X47.306 Y88.136 E23.13094
G1 X47.736 Y86.076 E23.24905
G1 X47.976 Y85.066 E23.30732
G1 X48.536 Y83.006 E23.42714
G1 X49.156 Y80.956 E23.54734
G1 X49.536 Y79.796 E23.61585
G1 X50.236 Y77.886 E23.73003
G1 X50.676 Y76.756 E23.79809
G1 X51.476 Y74.886 E23.91225
G1 X51.966 Y73.806 E23.97881
G1 X52.856 Y71.976 E24.09303
G1 X53.416 Y70.906 E24.16081
G1 X54.406 Y69.126 E24.27513
G1 X55.016 Y68.086 E24.34280
G1 X56.056 Y66.426 E24.45274
G1 X56.766 Y65.346 E24.52528
G1 X58.636 Y62.726 E24.70595
G1 X59.896 Y61.116 E24.82070
G1 X61.336 Y59.406 E24.94617
G1 X62.027 Y58.622 E25.00479
G1 F2760.000 E21.80479
G92 E0
G1 X69.428 Y65.269 F15000.000
G1 E3.20000 F2760.000
G1 X70.663 Y63.944 E3.30169 F960.000
G1 X71.944 Y62.663 E3.40337
G1 X72.602 Y62.040 E3.45422
G1 X73.269 Y61.428 E3.50506
G1 X74.637 Y60.239 E3.60674
G1 X75.336 Y59.663 E3.65758
G1 X76.743 Y58.563 E3.75786
G1 X78.229 Y57.483 E3.86096
G1 X79.710 Y56.483 E3.96123
G1 X80.495 Y55.983 E4.01349
G1 X81.267 Y55.510 E4.06433
G1 X82.814 Y54.616 E4.16460
G1 X84.436 Y53.753 E4.26770
G1 X86.042 Y52.970 E4.36797
G1 X86.889 Y52.583 E4.42022
G1 X87.719 Y52.222 E4.47107
G1 X89.399 Y51.543 E4.57275
G1 X91.102 Y50.924 E4.67444
G1 X92.801 Y50.372 E4.77471
G1 X93.693 Y50.107 E4.82696
G1 X95.443 Y49.638 E4.92865
G1 X97.209 Y49.230 E5.03033
G1 X98.096 Y49.050 E5.08118
G1 X99.880 Y48.735 E5.18286
G1 X101.670 Y48.468 E5.28440
G1 X101.670 Y48.483 E5.28529
G1 X102.575 Y48.380 E5.33641
G1 X104.379 Y48.222 E5.43809
G1 X106.189 Y48.128 E5.53978
G1 X107.150 Y48.102 E5.59376
G1 X107.150 Y46.114 E5.70538
G1 X108.941 Y46.114 E5.80588
G1 X109.881 Y46.139 E5.85867
G1 X110.821 Y46.180 E5.91147
G1 X112.697 Y46.311 E6.01705
G1 X114.568 Y46.508 E6.12263
G1 X116.431 Y46.770 E6.22822
G1 X117.359 Y46.925 E6.28101
G1 X119.205 Y47.284 E6.38660
G1 X121.038 Y47.707 E6.49218
G1 X121.949 Y47.942 E6.54497
G1 X123.757 Y48.461 E6.65055
G1 X124.654 Y48.744 E6.70335
G1 X125.546 Y49.042 E6.75614
G1 X127.314 Y49.686 E6.86172
G1 X128.189 Y50.030 E6.91452
G1 X129.921 Y50.765 E7.02010
G1 X131.626 Y51.560 E7.12568
G1 X132.467 Y51.980 E7.17848
G1 X134.128 Y52.863 E7.28406
G1 X134.947 Y53.326 E7.33685
G1 X136.521 Y54.272 E7.43990
G1 X138.137 Y55.320 E7.54802
G1 X139.678 Y56.399 E7.65360
G1 X140.434 Y56.958 E7.70640
G1 X141.881 Y58.088 E7.80944
G1 X142.642 Y58.715 E7.86477
G1 X144.062 Y59.949 E7.97035
G1 X144.756 Y60.584 E8.02315
G1 X146.109 Y61.891 E8.12873
G1 X147.416 Y63.244 E8.23431
G1 X148.051 Y63.938 E8.28711
G1 X149.285 Y65.358 E8.39269
G1 X149.883 Y66.083 E8.44548
G1 X151.042 Y67.566 E8.55106
G1 X151.601 Y68.322 E8.60386
G1 X152.680 Y69.863 E8.70944
G1 X153.680 Y71.402 E8.81249
G1 X154.196 Y72.242 E8.86782
G1 X154.674 Y73.053 E8.92061
G1 X155.586 Y74.698 E9.02619
G1 X156.440 Y76.374 E9.13178
G1 X157.235 Y78.079 E9.23736
G1 X157.970 Y79.811 E9.34294
G1 X158.314 Y80.686 E9.39574
G1 X158.958 Y82.454 E9.50132
G1 X159.854 Y85.240 E9.66560
G1 X159.833 Y85.240 E9.66677
G1 X160.293 Y86.962 E9.76680
G1 X160.513 Y87.876 E9.81959
G1 X161.090 Y90.632 E9.97758
G1 X161.074 Y90.632 E9.97850
G1 X161.370 Y92.499 E10.08464
G1 X161.599 Y94.367 E10.19023
G1 X161.689 Y95.303 E10.24302
G1 X161.820 Y97.179 E10.34860
G1 X161.886 Y99.059 E10.45419
G1 X161.894 Y100.000 E10.50698
G1 X161.886 Y100.941 E10.55978
G1 X161.820 Y102.821 E10.66536
G1 X161.689 Y104.697 E10.77094
G1 X161.599 Y105.633 E10.82373
G1 X161.492 Y106.568 E10.87653
G1 X161.230 Y108.431 E10.98211
G1 X160.904 Y110.284 E11.08770
G1 X160.716 Y111.205 E11.14049
G1 X160.293 Y113.038 E11.24607
G1 X160.058 Y113.949 E11.29886
G1 X159.539 Y115.757 E11.40445
G1 X158.958 Y117.546 E11.51003
G1 X158.644 Y118.433 E11.56282
G1 X157.970 Y120.189 E11.66841
G1 X157.610 Y121.058 E11.72120
G1 X157.235 Y121.921 E11.77399
G1 X156.440 Y123.626 E11.87957
G1 X155.586 Y125.302 E11.98516
G1 X154.674 Y126.947 E12.09074
G1 X154.196 Y127.758 E12.14354
G1 X153.705 Y128.559 E12.19633
G1 X152.680 Y130.137 E12.30191
G1 X151.601 Y131.678 E12.40749
G1 X151.042 Y132.434 E12.46029
G1 X149.883 Y133.917 E12.56587
G1 X149.285 Y134.642 E12.61866
G1 X148.051 Y136.062 E12.72425
G1 X147.416 Y136.756 E12.77704
G1 X146.109 Y138.109 E12.88262
G1 X144.756 Y139.416 E12.98821
G1 X144.062 Y140.051 E13.04100
G1 X142.642 Y141.285 E13.14659
G1 X141.917 Y141.884 E13.19938
G1 X140.434 Y143.042 E13.30496
G1 X139.678 Y143.601 E13.35775
G1 X138.137 Y144.680 E13.46334
G1 X136.559 Y145.705 E13.56892
G1 X135.757 Y146.196 E13.62171
G1 X134.947 Y146.674 E13.67451
G1 X133.302 Y147.586 E13.78009
G1 X132.467 Y148.020 E13.83288
G1 X130.777 Y148.845 E13.93847
G1 X129.921 Y149.235 E13.99126
G1 X128.189 Y149.970 E14.09684
G1 X126.433 Y150.644 E14.20243
G1 X125.546 Y150.958 E14.25522
G1 X123.757 Y151.539 E14.36080
G1 X121.949 Y152.058 E14.46638
G1 X121.038 Y152.293 E14.51918
G1 X119.205 Y152.716 E14.62476
G1 X118.283 Y152.904 E14.67755
G1 X116.431 Y153.230 E14.78314
G1 X115.501 Y153.370 E14.83593
G1 X114.568 Y153.492 E14.88872
G1 X112.697 Y153.689 E14.99431
G1 X110.821 Y153.820 E15.09989
G1 X109.881 Y153.861 E15.15269
G1 X108.941 Y153.886 E15.20548
G1 X107.150 Y153.886 E15.30598
G1 X107.150 Y151.898 E15.41760
G1 X106.189 Y151.872 E15.47158
G1 X104.379 Y151.778 E15.57327
G1 X102.575 Y151.620 E15.67495
G1 X101.670 Y151.517 E15.72607
G1 X101.670 Y151.532 E15.72696
G1 X98.987 Y151.116 E15.87933
G1 X97.209 Y150.770 E15.98102
G1 X95.443 Y150.362 E16.08271
G1 X94.566 Y150.135 E16.13354
G1 X92.825 Y149.636 E16.23524
G1 X91.102 Y149.076 E16.33691
G1 X90.248 Y148.774 E16.38776
G1 X89.399 Y148.457 E16.43861
G1 X87.719 Y147.778 E16.54029
G1 X86.064 Y147.041 E16.64197
G1 X85.224 Y146.640 E16.69423
G1 X83.633 Y145.829 E16.79450
G1 X82.048 Y144.950 E16.89619
G1 X80.495 Y144.017 E16.99787
G1 X79.731 Y143.530 E17.04871
G1 X78.976 Y143.030 E17.09956
G1 X77.492 Y141.991 E17.20124
G1 X76.045 Y140.901 E17.30292
G1 X74.637 Y139.761 E17.40462
G1 X73.269 Y138.572 E17.50630
G1 X71.944 Y137.337 E17.60798
G1 X71.298 Y136.702 E17.65882
G1 X70.663 Y136.056 E17.70967
G1 X69.428 Y134.731 E17.81135
G1 X68.239 Y133.363 E17.91303
G1 X67.663 Y132.664 E17.96388
G1 X67.099 Y131.955 E18.01473
G1 X66.009 Y130.508 E18.11641
G1 X64.970 Y129.024 E18.21809
G1 X64.470 Y128.269 E18.26894
G1 X63.983 Y127.505 E18.31979
G1 X63.050 Y125.952 E18.42147
G1 X62.171 Y124.367 E18.52316
G1 X61.349 Y122.753 E18.62484
G1 X60.959 Y121.936 E18.67568
G1 X60.222 Y120.281 E18.77736
G1 X59.875 Y119.444 E18.82821
G1 X59.543 Y118.601 E18.87905
G1 X58.924 Y116.898 E18.98074
G1 X58.364 Y115.175 E19.08242
G1 X58.107 Y114.307 E19.13326
G1 X57.638 Y112.557 E19.23495
G1 X57.230 Y110.791 E19.33663
G1 X57.050 Y109.904 E19.38748
G1 X56.884 Y109.013 E19.43832
G1 X56.601 Y107.224 E19.54001
G1 X56.380 Y105.425 E19.64169
G1 X56.222 Y103.621 E19.74338
G1 X56.167 Y102.716 E19.79422
G1 X56.104 Y100.906 E19.89590
G1 X56.096 Y100.000 E19.94675
G1 X56.104 Y99.094 E19.99760
G1 X56.167 Y97.284 E20.09927
G1 X56.222 Y96.379 E20.15012
G1 X56.380 Y94.575 E20.25181
G1 X56.601 Y92.776 E20.35349
G1 X56.884 Y90.987 E20.45517
G1 X57.050 Y90.096 E20.50602
G1 X57.230 Y89.209 E20.55686
G1 X57.638 Y87.443 E20.65855
G1 X58.107 Y85.693 E20.76024
G1 X58.364 Y84.825 E20.81108
G1 X58.924 Y83.102 E20.91276
G1 X59.535 Y81.423 E21.01303
G1 X59.875 Y80.556 E21.06529
G1 X60.222 Y79.719 E21.11614
G1 X60.959 Y78.064 E21.21782
G1 X61.349 Y77.247 E21.26866
G1 X62.160 Y75.655 E21.36893
G1 X63.050 Y74.048 E21.47203
G1 X63.983 Y72.495 E21.57371
G1 X64.470 Y71.731 E21.62456
G1 X64.970 Y70.976 E21.67541
G1 X66.009 Y69.492 E21.77709
G1 X67.084 Y68.065 E21.87736
G1 X67.663 Y67.336 E21.92962
G1 X68.239 Y66.637 E21.98046
G1 X69.378 Y65.326 E22.07793
G1 X69.786 Y65.620 F15000.000
G1 X71.023 Y64.292 E22.17981 F780.000
G1 X72.292 Y63.023 E22.28051
G1 X72.943 Y62.405 E22.33087
G1 X73.604 Y61.799 E22.38122
G1 X74.958 Y60.622 E22.48192
G1 X76.353 Y59.493 E22.58263
G1 X77.785 Y58.413 E22.68333
G1 X79.255 Y57.384 E22.78404
G1 X80.003 Y56.889 E22.83439
G1 X80.760 Y56.407 E22.88475
G1 X82.298 Y55.483 E22.98545
G1 X83.079 Y55.041 E23.03580
G1 X84.663 Y54.199 E23.13651
G1 X86.257 Y53.421 E23.23605
G1 X87.092 Y53.040 E23.28757
G1 X87.915 Y52.682 E23.33792
G1 X89.578 Y52.010 E23.43863
G1 X91.265 Y51.397 E23.53933
G1 X92.951 Y50.848 E23.63887
G1 X93.831 Y50.587 E23.69039
G1 X95.564 Y50.123 E23.79110
G1 X97.313 Y49.719 E23.89180
G1 X98.192 Y49.540 E23.94216
G1 X99.959 Y49.229 E24.04286
G1 X101.170 Y49.048 E24.11158
G1 X102.627 Y48.878 E24.19393
G1 X104.414 Y48.721 E24.29463
G1 X106.206 Y48.627 E24.39534
G1 X107.650 Y48.599 E24.47640
G1 X107.650 Y46.609 E24.58809
G1 X109.863 Y46.639 E24.71233
G1 X110.794 Y46.679 E24.76463
G1 X112.654 Y46.809 E24.86923
G1 X114.507 Y47.004 E24.97384
G1 X116.353 Y47.263 E25.07844
G1 X117.272 Y47.417 E25.13075
G1 X119.101 Y47.773 E25.23535
G1 X120.917 Y48.192 E25.33995
G1 X121.819 Y48.425 E25.39226
G1 X123.611 Y48.939 E25.49686
G1 X124.500 Y49.219 E25.54916
G1 X125.383 Y49.515 E25.60147
G1 X127.135 Y50.152 E25.70607
G1 X128.002 Y50.494 E25.75837
G1 X129.717 Y51.222 E25.86298
G1 X131.406 Y52.010 E25.96758
G1 X132.240 Y52.426 E26.01988
G1 X133.886 Y53.301 E26.12449
